X:1
T:Title
%%score [ ( 1 2 ) ( 3 4 ) ]
L:1/8
Q:1/4=240
M:4/4
K:G
V:1 treble nm="Midi_74"
V:2 treble 
V:3 bass nm="Midi_74"
V:4 bass 
V:1
 d8 | F4 G4 | A8 || d8 | c2 B2 A2 G2 | G4 F4 |"^James Kent\n(1700-1776)" G8 |][K:Bb] d8 | ^F4 G4 | %9
 A8 || d8 | c2 B2 A2 G2 | G4 ^F4 | G8 |] %14
V:2
 D8 | C4 D4 | F8 || G6 F2 | E4 E4 | D4 D4 | D8 |][K:Bb] D8 | C4 D4 | ^F8 || G6 =F2 | E4 E4 | %12
 D4 D4 | D8 |] %14
V:3
 B,8 | C4 B,4 | D8 || D8 | E2 D2 C2 B,2 | B,4 A,4 | B,8 |][K:Bb] B,8 | C4 B,4 | A,8 || G,8 | %11
 E2 D2 C2 B,2 | B,4 A,4 | B,8 |] %14
V:4
 G,8 | A,4 G,4 | D,8 || B,,8 | C,4 C,4 | D,4 D,4 | G,8 |][K:Bb] G,8 | A,4 G,4 | D,8 || B,,8 | %11
 C,4 C,4 | D,4 D,4 | G,8 |] %14

